packages/foundations/assets/icons/functional/images/accessibility/vehicle_entry_aid.svg

<svg xmlns="http://www.w3.org/2000/svg" width="32" height="32" fill="none"><path fill="#1A1C1F" fill-rule="evenodd" d="M9.005 3.538c-.808.301-1.315.957-1.367 1.77-.067 1.045.613 1.908 1.652 2.098.883.162 1.867-.388 2.184-1.219.385-1.01-.029-2.052-1.021-2.563-.298-.154-1.132-.204-1.448-.086m1.182 5.88a5 5 0 0 0-.691.228c-.66.34-.723 1.287-.112 1.692.308.204.544.215 1.133.054.58-.158.773-.171.927-.063.059.041.718 1.077 1.465 2.302s1.444 2.316 1.549 2.423q.191.195.447.26c.246.062.319.047 2.093-.427 1.146-.306 1.852-.471 1.874-.437.244.374 3.188 4.013 3.298 4.078.495.292 1.218.055 1.438-.472.091-.219.092-.59.001-.763-.084-.16-3.394-4.431-3.63-4.684-.227-.244-.434-.341-.722-.34-.136 0-.997.203-1.946.459-.937.251-1.709.452-1.715.445-.094-.098-1.072-1.75-1.046-1.766.02-.012.373-.111.783-.219 1.61-.423 2.082-.57 2.259-.706.331-.252.469-.768.309-1.152-.139-.332-.538-.609-.893-.619-.076-.003-.901.2-1.833.449a87 87 0 0 1-1.734.453c-.022 0-.125-.129-.229-.286a2.5 2.5 0 0 0-1.428-.99c-.415-.095-1.048-.063-1.597.081m-1.654 4.607c-.426.08-.669.348-.903.995-.308.852-.347 1.085-.346 2.073s.07 1.366.393 2.179a5.9 5.9 0 0 0 3.49 3.337c2.547.893 5.37-.102 6.869-2.419.38-.586.653-1.258.613-1.505a1.02 1.02 0 0 0-.458-.723c-.219-.14-.281-.154-.597-.138-.505.027-.655.157-1.044.909-.483.932-1.171 1.568-2.105 1.945-1.743.705-3.778-.036-4.71-1.714-.543-.978-.616-2.092-.213-3.259.257-.743.241-1.046-.072-1.376a.96.96 0 0 0-.917-.304m17.2 8.301c-.096.026-6.305 1.354-16.186 3.463l-3.654.779-1.072-.035c-1.331-.043-1.53.015-1.787.518-.298.585.054 1.292.709 1.424.156.031.776.061 1.377.067l1.093.011 5.894-1.266c12.154-2.611 13.9-2.979 14.16-2.984.146-.003.667.002 1.156.012 1.016.02 1.16-.019 1.454-.387.145-.183.163-.243.163-.564 0-.3-.023-.394-.143-.575-.26-.393-.422-.434-1.83-.464-.675-.015-1.275-.014-1.334.001"/></svg>

<svg width="32" height="32" viewBox="0 0 32 32" fill="none" xmlns="http://www.w3.org/2000/svg"><path d="M9.005 3.538 C 8.197 3.839,7.690 4.495,7.638 5.308 C 7.571 6.353,8.251 7.216,9.290 7.406 C 10.173 7.568,11.157 7.018,11.474 6.187 C 11.859 5.177,11.445 4.135,10.453 3.624 C 10.155 3.470,9.321 3.420,9.005 3.538 M10.187 9.418 C 9.908 9.492,9.597 9.594,9.496 9.646 C 8.836 9.986,8.773 10.933,9.384 11.338 C 9.692 11.542,9.928 11.553,10.517 11.392 C 11.097 11.234,11.290 11.221,11.444 11.329 C 11.503 11.370,12.162 12.406,12.909 13.631 C 13.656 14.856,14.353 15.947,14.458 16.054 C 14.585 16.184,14.735 16.271,14.905 16.314 C 15.151 16.376,15.224 16.361,16.998 15.887 C 18.144 15.581,18.850 15.416,18.872 15.450 C 19.116 15.824,22.060 19.463,22.170 19.528 C 22.665 19.820,23.388 19.583,23.608 19.056 C 23.699 18.837,23.700 18.466,23.609 18.293 C 23.525 18.133,20.215 13.862,19.979 13.609 C 19.752 13.365,19.545 13.268,19.257 13.269 C 19.121 13.269,18.260 13.472,17.311 13.728 C 16.374 13.979,15.602 14.180,15.596 14.173 C 15.502 14.075,14.524 12.423,14.550 12.407 C 14.570 12.395,14.923 12.296,15.333 12.188 C 16.943 11.765,17.415 11.618,17.592 11.482 C 17.923 11.230,18.061 10.714,17.901 10.330 C 17.762 9.998,17.363 9.721,17.008 9.711 C 16.932 9.708,16.107 9.911,15.175 10.160 C 14.242 10.409,13.462 10.613,13.441 10.613 C 13.419 10.613,13.316 10.484,13.212 10.327 C 12.899 9.856,12.334 9.464,11.784 9.337 C 11.369 9.242,10.736 9.274,10.187 9.418 M8.533 14.025 C 8.107 14.105,7.864 14.373,7.630 15.020 C 7.322 15.872,7.283 16.105,7.284 17.093 C 7.286 18.081,7.354 18.459,7.677 19.272 C 8.288 20.811,9.591 22.057,11.167 22.609 C 13.714 23.502,16.537 22.507,18.036 20.190 C 18.416 19.604,18.689 18.932,18.649 18.685 C 18.598 18.369,18.442 18.124,18.191 17.962 C 17.972 17.822,17.910 17.808,17.594 17.824 C 17.089 17.851,16.939 17.981,16.550 18.733 C 16.067 19.665,15.379 20.301,14.445 20.678 C 12.702 21.383,10.667 20.642,9.735 18.964 C 9.192 17.986,9.119 16.872,9.522 15.705 C 9.779 14.962,9.763 14.659,9.450 14.329 C 9.198 14.062,8.885 13.959,8.533 14.025 M25.733 22.326 C 25.637 22.352,19.428 23.680,9.547 25.789 L 5.893 26.568 4.821 26.533 C 3.490 26.490,3.291 26.548,3.034 27.051 C 2.736 27.636,3.088 28.343,3.743 28.475 C 3.899 28.506,4.519 28.536,5.120 28.542 L 6.213 28.553 12.107 27.287 C 24.261 24.676,26.007 24.308,26.267 24.303 C 26.413 24.300,26.934 24.305,27.423 24.315 C 28.439 24.335,28.583 24.296,28.877 23.928 C 29.022 23.745,29.040 23.685,29.040 23.364 C 29.040 23.064,29.017 22.970,28.897 22.789 C 28.637 22.396,28.475 22.355,27.067 22.325 C 26.392 22.310,25.792 22.311,25.733 22.326 " fill="#1A1C1F" stroke="none" fill-rule="evenodd"></path></svg>
